X:39
%%score 1 2
%%staffscale 1.0
T:Turkeyloney
M:6/8
L:1/8
K:Bb
V:1 clef-treble
V:2 clef-bass octave=-1
V:1
(G/A/)|B>AG ^F>=EF|GAG (^F>G)A|
w:If* e-ver I mar-ry, I'll mar-ry a maid:* To 
V:2
z|[GB]3 [Ac]3|[Bd]3 [Ac]3|[GB]3 C3|
V:1
B>cd A>Bc & x3 E2x|(BA)G ^F2F & D3-D2x|G>AB A>Bc & D3 F3|
w:marry* a widow* I'm sore* a-fraid; For maids they are sim-ple, and 
V:2
D3-D2z|[GB]3 [Fc]3|[B,FB]2[B,FB] [B,FB]3|
V:1
[Fd]2[Fd] [F(d]c)B|A2G ^F=EF & E2x C3|[B,G]GC G2||
w:never will grutch,* But widows full oft, as they say, know too much.
w:**(grudge)|||
V:2
C3 D3|G,3 G,2||

